X: 34177
T: Reel Of Bogie, The
R: reel
M: 4/4
K: Edorian
BE (3EEE BAFB|ABde fded|BE (3EEE BAFB|ABAF EFGA|
B2>d2 BAFB|ABde fded|BE (3EEE BAFB|ABAF EFGA:|
|:Bdef gfec|dB (3BBB dBAd|Bdef gfec|dBAF E2f2|
g2ga gfeg|f2fg fedA|Bdef ecdB|AGFD E4:|

